X:5
T:Imeland och Grimeland
R:reil\"ander
O:Norge
Z:hn-schottis-5
M:C|
K:Amix
E>DE>F E2E2|E>Ac>B B2A2|c3B G2G2|G>Be>c A2A2|
E>DE>F E2E2|E>Ac>B B2A2|c2c>B G>Be>c|A2A2 A4:|
|:a>ga>b g2g>f|e>fe>c A2A2|c3B G2G2|G>Be>c A2A2|
a>ga>b g>ag>f|e>fe>c A2A2|c2c>B G>Be>c|A2A2 A4:|
<end>
<start>
